img/vk.svg

<svg width="24" height="24" viewBox="0 0 24 24" fill="none" xmlns="http://www.w3.org/2000/svg">
<path d="M23.057 19.3021H20.4367C19.4451 19.3021 19.1386 18.5133 17.3566 16.7073C15.8046 15.2048 15.1179 15.002 14.7363 15.002C14.2014 15.002 14.0482 15.1552 14.0482 15.893V18.2594C14.0482 18.8964 13.8453 19.278 12.1656 19.278C9.39198 19.278 6.3119 17.5983 4.14984 14.4671C0.892471 9.88756 0 6.45139 0 5.73922C0 5.35759 0.153253 5.0015 0.890969 5.0015H3.51129C4.17238 5.0015 4.4278 5.3065 4.68322 6.01868C5.97986 9.75985 8.14342 13.0428 9.03439 13.0428C9.36494 13.0428 9.51819 12.8895 9.51819 12.0511V8.18074C9.41602 6.39881 8.47397 6.24706 8.47397 5.61151C8.47397 5.305 8.72939 5 9.13506 5H13.2579C13.8183 5 14.0211 5.305 14.0211 5.96609V11.1842C14.0211 11.7431 14.2765 11.9475 14.4283 11.9475C14.7588 11.9475 15.0398 11.7431 15.6498 11.1331C17.5339 9.02063 18.8816 5.76326 18.8816 5.76326C19.0604 5.38163 19.3654 5.02554 20.028 5.02554H22.6483C23.4371 5.02554 23.6159 5.43121 23.4371 5.99163C23.1066 7.51965 19.9003 12.0481 19.9003 12.0481C19.6208 12.5064 19.5187 12.7092 19.9003 13.2201C20.1798 13.6017 21.0963 14.3905 21.7078 15.1027C22.8271 16.3753 23.6911 17.4435 23.9209 18.1827C24.1764 18.919 23.7932 19.3006 23.0555 19.3006L23.057 19.3021Z" fill="white"/>
</svg>

<svg width="24" height="24" fill="none" xmlns="http://www.w3.org/2000/svg"><path d="M23.057 19.302h-2.62c-.992 0-1.298-.789-3.08-2.595-1.552-1.502-2.24-1.705-2.62-1.705-.536 0-.689.153-.689.891v2.366c0 .637-.203 1.019-1.882 1.019-2.774 0-5.854-1.68-8.016-4.81C.892 9.887 0 6.45 0 5.738c0-.381.153-.737.891-.737h2.62c.661 0 .917.304 1.172 1.017 1.297 3.74 3.46 7.024 4.351 7.024.33 0 .484-.153.484-.992v-3.87c-.102-1.782-1.044-1.934-1.044-2.57 0-.306.255-.611.661-.611h4.123c.56 0 .763.305.763.966v5.218c0 .56.255.764.407.764.33 0 .612-.205 1.222-.815 1.884-2.112 3.232-5.37 3.232-5.37.178-.381.483-.737 1.146-.737h2.62c.79 0 .968.405.79.966-.331 1.528-3.538 6.056-3.538 6.056-.28.458-.381.661 0 1.172.28.382 1.196 1.17 1.808 1.883 1.12 1.272 1.983 2.34 2.213 3.08.255.736-.128 1.118-.866 1.118l.002.001Z" fill="#fff"/></svg>
